X: 951
T: Owen Malone   #2
R: jig
%S: s:2 b:12(6+6)
O: Dunlap
B: O'Neill's 1850 #951
Z: Dan G. Petersen, dangp@post6.tele.dk
M: 6/8
L: 1/8
K: G
"^A"|: (B/c/) |: dBG Gge | dBG Gge |1,3 dcB dcB | ABA {B}ABc :|2,4 def gdB | G>AG G2 :|
"^B"|: z |:: Bdd Add |1 gag f2d :|2 ge^c de=c :|3 gag f2e | def gdB | G>AG G2 :|
